brandFactory_export/3.Masa/Configurar decodificador tv_3Masa.svg

<?xml version="1.0" encoding="UTF-8"?>
<svg width="24px" height="24px" viewBox="0 0 24 24" version="1.1" xmlns="http://www.w3.org/2000/svg" xmlns:xlink="http://www.w3.org/1999/xlink">
    <title>3.Masa/Configurar decodificador tv_3Masa</title>
    <g id="Symbols" stroke="none" stroke-width="1" fill="none" fill-rule="evenodd">
        <g id="3.Masa/Configurar-decodificador-tv_3Masa" fill="#5CB615" fill-rule="nonzero">
            <path d="M15.4117647,4.01680672 C15.9697479,4.01680672 16.4201681,4.46722689 16.4201681,5.02521008 L16.4201681,5.02521008 L16.4201681,5.65378151 C16.5109244,5.67731092 16.5983193,5.70756303 16.6857143,5.73781513 L16.6857143,5.73781513 L17.112605,5.31092437 C17.5058824,4.91764706 18.1445378,4.91764706 18.5378151,5.31092437 L18.5378151,5.31092437 L19.4184874,6.19159664 C19.8117647,6.58487395 19.8117647,7.22352941 19.4184874,7.61680672 L19.4184874,7.61680672 L18.9915966,8.04369748 C19.0218487,8.13109244 19.0487395,8.21848739 19.0756303,8.3092437 L19.0756303,8.3092437 L19.7042017,8.3092437 C20.2621849,8.3092437 20.712605,8.75966387 20.712605,9.31764706 L20.712605,9.31764706 L20.712605,10.5613445 C20.712605,11.1193277 20.2621849,11.5697479 19.7042017,11.5697479 L19.7042017,11.5697479 L19.0756303,11.5697479 C19.0521008,11.6605042 19.0218487,11.7478992 18.9915966,11.8352941 L18.9915966,11.8352941 L19.4184874,12.2621849 C19.512605,12.3596639 19.589916,12.4739496 19.6403361,12.5983193 L19.6403361,12.5983193 L21.0487395,12.5983193 C22.4739496,12.5983193 23.6268908,13.7546218 23.6268908,15.1764706 L23.6268908,15.1764706 L23.6268908,17.6 C23.6268908,19.0218487 22.4739496,20.1781513 21.0487395,20.1781513 L21.0487395,20.1781513 L2.57815126,20.1781513 C1.15630252,20.1781513 -2.81739077e-10,19.0252101 -2.81739077e-10,17.6 L-2.81739077e-10,17.6 L-2.81739077e-10,15.1764706 C-2.81739077e-10,13.7512605 1.15630252,12.5983193 2.5815126,12.5983193 L2.5815126,12.5983193 L9.94285714,12.5983193 C9.99327731,12.4739496 10.0672269,12.3596639 10.1647059,12.2621849 L10.1647059,12.2621849 L10.5915966,11.8352941 C10.5613445,11.7478992 10.5344538,11.6605042 10.507563,11.5697479 L10.507563,11.5697479 L9.8789916,11.5697479 C9.3210084,11.5697479 8.87058824,11.1193277 8.87058824,10.5613445 L8.87058824,10.5613445 L8.87058824,9.31764706 C8.87058824,8.75966387 9.3210084,8.3092437 9.8789916,8.3092437 L9.8789916,8.3092437 L10.507563,8.3092437 C10.5310924,8.21848739 10.5613445,8.13109244 10.5915966,8.04369748 L10.5915966,8.04369748 L10.1647059,7.61680672 C9.77142857,7.22352941 9.77142857,6.58487395 10.1647059,6.19159664 L10.1647059,6.19159664 L11.0420168,5.31092437 C11.4352941,4.91764706 12.0739496,4.91764706 12.4672269,5.31092437 L12.4672269,5.31092437 L12.8941176,5.73781513 C12.9815126,5.70756303 13.0689076,5.68067227 13.1596639,5.65378151 L13.1596639,5.65378151 L13.1596639,5.02521008 C13.1596639,4.46722689 13.610084,4.01680672 14.1680672,4.01680672 L14.1680672,4.01680672 Z M19.6134454,16.7630252 L16.4268908,16.7630252 C16.0336134,16.7630252 15.7142857,17.0823529 15.7142857,17.4756303 C15.7142857,17.8689076 16.0336134,18.1882353 16.4268908,18.1882353 L16.4268908,18.1882353 L19.6134454,18.1882353 C20.0067227,18.1882353 20.3260504,17.8689076 20.3260504,17.4756303 C20.3260504,17.0823529 20.0067227,16.7630252 19.6134454,16.7630252 L19.6134454,16.7630252 Z M3.53277311,16.9243697 C3.2302521,16.9243697 2.98487395,17.1697479 2.98487395,17.4722689 C2.98487395,17.7747899 3.2302521,18.0201681 3.53277311,18.0201681 C3.83529412,18.0201681 4.08067227,17.7781513 4.08067227,17.4722689 C4.08067227,17.1697479 3.83529412,16.9243697 3.53277311,16.9243697 Z M5.56638655,16.9243697 C5.26386555,16.9243697 5.01848739,17.1697479 5.01848739,17.4722689 C5.01848739,17.7747899 5.26386555,18.0201681 5.56638655,18.0201681 C5.86890756,18.0201681 6.11428571,17.7781513 6.11428571,17.4722689 C6.11428571,17.1697479 5.86890756,16.9243697 5.56638655,16.9243697 Z M7.53277311,16.9243697 C7.2302521,16.9243697 6.98487395,17.1697479 6.98487395,17.4722689 C6.98487395,17.7747899 7.2302521,18.0201681 7.53277311,18.0201681 C7.83529412,18.0201681 8.08067227,17.7781513 8.08067227,17.4722689 C8.08067227,17.1697479 7.83529412,16.9243697 7.53277311,16.9243697 Z M15.4117647,5.02184874 L14.1680672,5.02184874 L14.1680672,6.48067227 C13.5865546,6.54117647 13.0890756,6.69579832 12.6756303,6.94453782 L12.6756303,6.94453782 L11.7512605,6.02016807 L10.8739496,6.89747899 L11.7983193,7.82184874 C11.5563025,8.22521008 11.3983193,8.72268908 11.3344538,9.31428571 L11.3344538,9.31428571 L9.87563025,9.31428571 L9.87563025,10.5579832 L11.3344538,10.5579832 C11.394958,11.1495798 11.5529412,11.6470588 11.7983193,12.0504202 L11.7983193,12.0504202 L10.8739496,12.9747899 L11.7512605,13.8554622 L12.6756303,12.9310924 C13.0890756,13.1798319 13.589916,13.3310924 14.1680672,13.394958 L14.1680672,13.394958 L14.1680672,14.8537815 L15.4117647,14.8537815 L15.4084034,13.394958 C15.989916,13.3344538 16.487395,13.1798319 16.9008403,12.9310924 L16.9008403,12.9310924 L17.8252101,13.8554622 L18.7058824,12.9781513 L17.7815126,12.0537815 C18.0235294,11.6504202 18.1815126,11.1529412 18.2453782,10.5613445 L18.2453782,10.5613445 L19.7042017,10.5613445 L19.7042017,9.31764706 L18.2453782,9.31764706 C18.1848739,8.72605042 18.0268908,8.22857143 17.7815126,7.82521008 L17.7815126,7.82521008 L18.7092437,6.89747899 L17.8285714,6.02016807 L16.9042017,6.94453782 C16.4907563,6.69579832 15.989916,6.54453782 15.4117647,6.48067227 L15.4117647,6.48067227 L15.4117647,5.02184874 Z M14.789916,8.19159664 C15.8957983,8.19159664 16.5344538,8.74285714 16.5344538,9.93613445 C16.5344538,11.1294118 15.8957983,11.6806723 14.789916,11.6806723 C13.6840336,11.6806723 13.0453782,11.1294118 13.0453782,9.93613445 C13.0453782,8.74285714 13.6840336,8.19159664 14.789916,8.19159664 Z" id="Configurar-decodificador-tv_3Masa"></path>
        </g>
    </g>
</svg>

<svg width="24" height="24" viewBox="0 0 24 24" xmlns="http://www.w3.org/2000/svg"><path d="M15.412 4.017c.558 0 1.008.45 1.008 1.008v.629c.09.023.178.054.266.084l.427-.427a1.008 1.008 0 011.425 0l.88.88a1.008 1.008 0 010 1.426l-.426.427c.03.087.057.174.084.265h.628c.558 0 1.009.45 1.009 1.009v1.243c0 .558-.45 1.009-1.009 1.009h-.628c-.024.09-.054.178-.084.265l.426.427c.095.098.172.212.222.336h1.409a2.579 2.579 0 012.578 2.578V17.6a2.579 2.579 0 01-2.578 2.578H2.579A2.579 2.579 0 010 17.6v-2.424a2.58 2.58 0 012.582-2.578h7.36a1.01 1.01 0 01.223-.336l.427-.427a6.13 6.13 0 01-.084-.265h-.629c-.558 0-1.008-.45-1.008-1.009V9.318c0-.558.45-1.009 1.008-1.009h.629c.023-.09.053-.178.084-.265l-.427-.427a1.008 1.008 0 010-1.425l.877-.881a1.008 1.008 0 011.425 0l.427.427a6.13 6.13 0 01.266-.084v-.629c0-.558.45-1.008 1.008-1.008zm4.201 12.746h-3.186a.713.713 0 000 1.425h3.186a.713.713 0 000-1.425zm-16.08.161a.548.548 0 100 1.096.548.548 0 000-1.096zm2.033 0a.548.548 0 100 1.096.548.548 0 000-1.096zm1.967 0a.548.548 0 100 1.096.548.548 0 000-1.096zm7.879-11.902h-1.244V6.48c-.581.06-1.079.215-1.492.464l-.925-.925-.877.877.924.925c-.242.403-.4.9-.464 1.492H9.876v1.244h1.458c.061.592.219 1.09.464 1.492l-.924.925.877.88.925-.924c.413.249.914.4 1.492.464v1.459h1.244l-.004-1.459c.582-.06 1.08-.215 1.493-.464l.924.924.88-.877-.923-.924c.242-.404.4-.901.463-1.493h1.46V9.318h-1.46c-.06-.592-.218-1.09-.463-1.493l.927-.928-.88-.877-.925.925c-.413-.25-.914-.4-1.492-.464V5.02zm-.622 3.17c1.106 0 1.744.55 1.744 1.744 0 1.193-.638 1.745-1.744 1.745-1.106 0-1.745-.552-1.745-1.745s.639-1.744 1.745-1.744z" fill="#5CB615" fill-rule="nonzero"/></svg>
